assets/coins/svg/BCH.svg

<svg width="64" height="64" viewBox="0 0 64 64" fill="none" xmlns="http://www.w3.org/2000/svg">
<g clip-path="url(#clip0_40_26381)">
<mask id="mask0_40_26381" style="mask-type:luminance" maskUnits="userSpaceOnUse" x="0" y="0" width="64" height="64">
<path d="M32 64C49.6731 64 64 49.6731 64 32C64 14.3269 49.6731 0 32 0C14.3269 0 0 14.3269 0 32C0 49.6731 14.3269 64 32 64Z" fill="white"/>
</mask>
<g mask="url(#mask0_40_26381)">
<path d="M32 64C49.6731 64 64 49.6731 64 32C64 14.3269 49.6731 0 32 0C14.3269 0 0 14.3269 0 32C0 49.6731 14.3269 64 32 64Z" fill="#0AC18E"/>
<path d="M41.982 21.255C40.374 17.608 36.682 16.829 32.155 17.584L30.7 11.947L27.273 12.832L28.702 18.452C27.802 18.679 26.875 18.874 25.957 19.134L24.528 13.546L21.101 14.431L22.555 20.068C21.816 20.279 15.635 21.863 15.635 21.863L16.577 25.534C16.577 25.534 19.095 24.827 19.07 24.884C19.5151 24.7054 20.0126 24.7092 20.4548 24.8947C20.8971 25.0802 21.2485 25.4324 21.433 25.875L25.433 41.323C25.4929 41.649 25.4227 41.9854 25.2374 42.2602C25.0522 42.535 24.7666 42.7263 24.442 42.793C24.499 42.825 21.949 43.435 21.949 43.435L22.323 47.715C22.323 47.715 28.447 46.147 29.251 45.944L30.721 51.644L34.148 50.759L32.678 45.017C33.62 44.7977 34.5377 44.5704 35.431 44.335L36.893 50.045L40.32 49.16L38.85 43.467C44.129 42.184 47.857 38.854 47.094 33.761C46.607 30.691 43.252 28.173 40.467 27.889C41.4057 27.0973 42.0615 26.0219 42.3355 24.8249C42.6094 23.6279 42.4868 22.3742 41.986 21.253L41.982 21.255ZM40.333 34.7C41.015 39.744 34.006 40.361 31.691 40.97L29.677 33.425C32 32.812 39.18 30.254 40.333 34.7ZM36.11 24.422C36.833 28.905 30.839 29.422 28.91 29.922L27.07 23.074C29.011 22.595 34.64 20.272 36.11 24.422Z" fill="white"/>
</g>
</g>
<defs>
<clipPath id="clip0_40_26381">
<rect width="64" height="64" fill="white"/>
</clipPath>
</defs>
</svg>

<svg xmlns="http://www.w3.org/2000/svg" xmlns:xlink="http://www.w3.org/1999/xlink" width="64" height="64" viewBox="0 0 64 64"><defs><clipPath id="a"><circle cx="32" cy="32" r="32" transform="translate(286 325)" fill="#dedede"/></clipPath></defs><g transform="translate(-286 -325)" clip-path="url(#a)"><g transform="translate(286 325)"><circle cx="32" cy="32" r="32" fill="#0ac18e"/><path d="M41.982,21.255c-1.608-3.647-5.3-4.426-9.827-3.671L30.7,11.947l-3.427.885,1.429,5.62c-.9.227-1.827.422-2.745.682l-1.429-5.588-3.427.885,1.454,5.637c-.739.211-6.92,1.795-6.92,1.795l.942,3.671s2.518-.707,2.493-.65a1.824,1.824,0,0,1,2.363.991l4,15.448a1.267,1.267,0,0,1-.991,1.47c.057.032-2.493.642-2.493.642l.374,4.28s6.124-1.568,6.928-1.771l1.47,5.7,3.427-.885-1.47-5.742q1.413-.329,2.753-.682l1.462,5.71,3.427-.885-1.47-5.693c5.279-1.283,9.007-4.613,8.244-9.706-.487-3.07-3.842-5.588-6.627-5.872a5.661,5.661,0,0,0,1.519-6.636ZM40.333,34.7c.682,5.044-6.327,5.661-8.642,6.27l-2.014-7.545C32,32.812,39.18,30.254,40.333,34.7ZM36.11,24.422c.723,4.483-5.271,5-7.2,5.5L27.07,23.074C29.011,22.595,34.64,20.272,36.11,24.422Z" fill="#fff"/></g></g></svg>
